!!!COM: Bach, Johann Sebastian
!!!CDT: 1685/3//-1750/7/28/
!!!OTL@@DE: Ach wie fluechtig, ach wie nichtig
!!!AGN: 4-Part Chorale
!!!OPR: Cantata, BWV 26
!!!SCT: BH 048
!!!SCT: BWV 26
**harm	**root	**kern	**kern	**kern	**kern
!	!	!bass	!tenor	!alto	!soprno
*	*Iorgan	*Iorgan	*Iorgan	*Iorgan	*Iorgan
*	*	*clefF4	*clefF4	*clefG2	*clefG2
*M4/4	*M4/4	*M4/4	*M4/4	*M4/4	*M4/4
*met(c)	*met(c)	*met(c)	*met(c)	*met(c)	*met(c)
*MM60	*MM60	*MM60	*MM60	*MM60	*MM60
*k[b-e-a-d-]	*k[b-e-a-d-]	*k[b-e-a-d-]	*k[b-e-a-d-]	*k[b-e-a-d-]	*k[b-e-a-d-]
*f:	*f:	*f:	*f:	*f:	*f:
=1-	=1-	=1-	=1-	=1-	=1-
i	4AA	4F	4A-	4c	4f
Vb	4EE	4E	4G	4c	4g
i	4AA	4F	4F	4c	4a-
i;	4AA;	4FF;	4F;	4c;	4a-;
=2	=2	=2	=2	=2	=2
i	4AA	4F	4F	4c	4a-
V/III	4GG	4E-	4G	4e-	4b-
I/III	4CC	4A-	4A-	4e-	4cc
I/III;	4CC;	4AA-;	4A-;	4e-;	4cc;
=3	=3	=3	=3	=3	=3
I/III	4CC	8A-	8A-	4e-	4cc
.	.	8G	8B-	.	.
i	4AA	8F	8A-	[4a-	4cc
.	.	8E-	8G	.	.
V7b/-VII	8DD	8D	8F	8a-]	4b-
viio	8GG#	8E	8G	4g	.
i	4AA	4F	8A-	.	4a-
.	.	.	8c	8f	.
=4	=4	=4	=4	=4	=4
iv7	4DD	4BB-	4d-	4f	4.g
V	4EE	4C	8c	4e	.
.	.	.	8B-	.	8f
I;	2AA;	2FF;	2A;	2c;	2f;
=5	=5	=5	=5	=5	=5
I	4AA	8F	8A	4f	4cc
.	.	8G	8B-	.	.
Ib	4AA	8A	8c	4f	4cc
.	.	8F	8A	.	.
iv	4DD	8B-	4B-	4f	4dd-
.	.	8A-	.	.	.
-II	4BB-	8G-	4B-	4g-	4dd-
.	.	8F	.	.	.
!!linebreak: 2
=6	=6	=6	=6	=6	=6
viiD7/VI	4EE	8E-	4B-	4g-	4cc
.	.	8C	.	.	.
V/IV	4AA	4F	4A	8f	4cc
.	.	.	.	8e-	.
IV	4DD	4BB-	4B-	8e-	4cc
.	.	.	.	8c	.
IV;	4DD;	4BB-;	4F;	4d;	4b-;
*A-:	*A-:	*A-:	*A-:	*A-:	*A-:
=7	=7	=7	=7	=7	=7
V	4GG	8E-	8G	4e-	4b-
.	.	8F	8A-	.	.
Vb	4GG	8G	8B-	4e-	4b-
.	.	8E-	8G	.	.
I	4CC	8A-	4A-	4e-	4cc
.	.	8G	.	.	.
vi	4AA	8F	4A-	4f	4cc
.	.	8E-	.	.	.
=8	=8	=8	=8	=8	=8
ii7b	4DD	8D-	4A-	4f	4b-
.	.	8BB-	.	.	.
V	4GG	4E-	4G	8e-	4b-
.	.	.	.	8d-	.
I	4CC	4AA-	4A-	8d-	4a-
.	.	.	.	8B-	.
I;	4CC;	4AA-;	4E-;	4c;	4a-;
*f:	*f:	*f:	*f:	*f:	*f:
=9	=9	=9	=9	=9	=9
VI	4FF	4D-	4F	4d-	4a-
iv	4DD	8C	4F	4d-	4b-
.	.	8BB-	.	.	.
Vb	4EE	8E	4G	4c	4cc
.	.	8C	.	.	.
I	4AA	4F	4F	4c	8b-
.	.	.	.	.	8a-
=10	=10	=10	=10	=10	=10
V7b/V	4BB	4BB	4F	4d	4g
V	4EE	4C	4E	8c	4g
.	.	.	.	8B-	.
I	4AA	4F	4F	8B-	4f
.	.	.	.	8G	.
I;	4AA;	4FF;	4C;	4A;	4f;
====	====	====	====	====	====
*-	*-	*-	*-	*-	*-
!!chor2scor: -l 2 -s 0.6 -o %b.pmx
!!!YEC: Copyright 1994, David Huron
!!!YEC: Changes/Additions 2001 by Craig Stuart Sapp
!!!YEN: United States of America
!!!SMA: 371 Bach Chorales, edited by Ludwig Erk, C.F. Peters
!!!PDT: 1850, 1865
